X:1
T:Title
%%score { 1 | 2 }
L:1/8
M:6/4
K:Eb
V:1 treble nm="Grand Piano"
V:2 bass 
V:1
 z6 z4 E2 | G4 G2 G2 F2 E2 | B4 c2 B4 A2 | G4 G2 G2 F2 E2 |[M:5/4] [DF]2- [DF]2- [DF]6 | %5
[M:1/4] E2 |[M:6/4] G4 G2 G2 F2 E2 | B4 c2 B4 E2 | G4 G2 [EG]2 E2 F2 | E12 | c4 c2 e4 c2 | %11
 [GB]4 [_G=A]2 .[=GB]6 | c2 c2 c2 [Ac]2 [GB]4 |[M:5/4] G4 E2 [DF]4 |[M:1/4] E2 | %15
[M:6/4] G4 G2 G2 F2 E2 | B4 c2 .B6 | e4 c2 [GB]2 [EG]4 | %18
[M:5/4] [EG]4 [DF]2 [B,E]4[Q:1/4=118][Q:1/4=116][Q:1/4=115][Q:1/4=113][Q:1/4=111][Q:1/4=109][Q:1/4=108][Q:1/4=106][Q:1/4=104][Q:1/4=102][Q:1/4=101][Q:1/4=99][Q:1/4=97][Q:1/4=95][Q:1/4=94][Q:1/4=92] |] %19
V:2
 z6 z4 [E,G,]2 | [E,B,E]4 [E,B,E]2 [E,B,E]2 [E,A,B,]2 [E,G,B,]2 | %2
 [E,G,E]4 [E,A,E]2 [E,G,E]4 [E,CE]2 | [E,B,E]4 [E,B,E]2 [E,B,E]2 [E,A,E]2 [E,G,]2 | %4
[M:5/4] [B,,B,]2- [B,,B,]2- [B,,B,]6 |[M:1/4] [E,G,]2 | %6
[M:6/4] [E,B,E]4 [E,B,E]2 [E,B,E]2 [E,A,B,]2 [E,G,B,]2 | [E,G,E]4 [D,A,E]2 [E,G,E]4 [E,G,]2 | %8
 [E,B,E]4 [E,B,E]2 [B,,B,]2 [B,,G,B,]2 [B,,A,B,]2 | [E,G,B,]12 | [A,E]4 [A,E]2 [A,CE]4 [A,EA]2 | %11
 [E,E]4 [E,E]2 .[E,E]6 | [A,EA]2 [A,EA]2 [A,EA]2[K:bass] [E,E]2 [E,E]4 | %13
[M:5/4] [E,B,E]4 [C,=A,]2 [B,,B,]4 |[M:1/4] [E,G,]2 | %15
[M:6/4] [E,B,E]4 [E,B,E]2 [E,B,E]2 [E,A,B,]2 [E,G,B,]2 | [E,G,E]4 [E,A,E]2 .[E,G,E]6 | %17
 [A,CE]4 [A,EA]2[K:bass] [E,E]2 [E,B,]4 |[M:5/4] [B,,B,]4 [B,,A,]2 [E,G,]4 |] %19

